icons/castbox.svg

<svg width="32" height="32" viewBox="0 0 32 32" fill="none" xmlns="http://www.w3.org/2000/svg">
<path fill-rule="evenodd" clip-rule="evenodd" d="M3.36627 28.6337C0.910867 26.1783 0 22.1783 0 16C0 9.82167 0.910867 5.82167 3.36627 3.36627C5.82167 0.910867 9.82167 0 16 0C22.1783 0 26.1783 0.910867 28.6337 3.36627C31.0891 5.82167 32 9.82167 32 16C32 22.1783 31.0891 26.1783 28.6337 28.6337C26.1783 31.0891 22.1783 32 16 32C9.82167 32 5.82167 31.0891 3.36627 28.6337Z" fill="url(#paint0_linear_29_125)"/>
<path fill-rule="evenodd" clip-rule="evenodd" d="M18.6626 11.8595V18.7212C18.6626 19.2735 18.2149 19.7212 17.6626 19.7212C17.1103 19.7212 16.6626 19.2735 16.6626 18.7212V16.7857C16.5853 16.4778 16.3054 16.2643 15.9881 16.2711C15.6708 16.2779 15.4003 16.5032 15.3362 16.8141H15.3332V18.6008C15.3332 19.153 14.8855 19.6008 14.3332 19.6008C13.781 19.6008 13.3332 19.153 13.3332 18.6008V16.1744C13.2679 15.8581 12.9895 15.6313 12.6666 15.6313C12.3437 15.6313 12.0652 15.8581 11.9999 16.1744V20.9904C11.9999 21.5427 11.5522 21.9904 10.9999 21.9904C10.4476 21.9904 9.99991 21.5427 9.99991 20.9904V17.4538C9.96333 17.1211 9.66651 16.8793 9.33324 16.9107C8.99997 16.8793 8.70315 17.1211 8.66658 17.4538V17.7134C8.67771 18.0779 8.48959 18.4196 8.1756 18.6052C7.86162 18.7908 7.47153 18.7908 7.15755 18.6052C6.84356 18.4196 6.65544 18.0779 6.66658 17.7134V14.6234C6.65544 14.2588 6.84356 13.9171 7.15755 13.7315C7.47153 13.5459 7.86162 13.5459 8.1756 13.7315C8.48959 13.9171 8.67771 14.2588 8.66658 14.6234V14.8829C8.70315 15.2156 8.99997 15.4575 9.33324 15.426C9.66651 15.4575 9.96333 15.2156 9.99991 14.8829V12.6562C9.99991 12.1039 10.4476 11.6562 10.9999 11.6562C11.5522 11.6562 11.9999 12.1039 11.9999 12.6562V13.5978C12.0652 13.914 12.3437 14.1408 12.6666 14.1408C12.9895 14.1408 13.2679 13.914 13.3332 13.5978V11.0023C13.3332 10.45 13.781 10.0023 14.3332 10.0023C14.8855 10.0023 15.3332 10.45 15.3332 11.0023V14.2432H15.3362C15.4003 14.554 15.6708 14.7793 15.9881 14.7861C16.3054 14.7929 16.5853 14.5794 16.6626 14.2716V11.8595C16.6626 11.3072 17.1103 10.8595 17.6626 10.8595C18.2149 10.8595 18.6626 11.3072 18.6626 11.8595ZM20.9999 13.5368C20.4522 13.5324 20.0045 13.9728 19.9999 14.5206V18.4434C19.9999 18.9957 20.4476 19.4434 20.9999 19.4434C21.5522 19.4434 21.9999 18.9957 21.9999 18.4434V14.5206C21.9953 13.9728 21.5477 13.5324 20.9999 13.5368ZM23.3333 16.5121C23.3378 15.9643 23.7855 15.524 24.3333 15.5284C24.881 15.524 25.3287 15.9643 25.3333 16.5121V17.4898C25.3333 18.042 24.8855 18.4898 24.3333 18.4898C23.781 18.4898 23.3333 18.042 23.3333 17.4898V16.5121Z" fill="white"/>
<defs>
<linearGradient id="paint0_linear_29_125" x1="-9.26747" y1="16" x2="16" y2="41.2675" gradientUnits="userSpaceOnUse">
<stop stop-color="#FF9E57"/>
<stop offset="1" stop-color="#FF5321"/>
</linearGradient>
</defs>
</svg>

<svg xmlns="http://www.w3.org/2000/svg" width="32" height="32" fill="none" viewBox="0 0 32 32">
  <path fill="url(#a)" fill-rule="evenodd" d="M3.366 28.634C.911 26.178 0 22.178 0 16S.91 5.822 3.366 3.366C5.822.911 9.822 0 16 0s10.178.91 12.634 3.366C31.089 5.822 32 9.822 32 16s-.91 10.178-3.366 12.634C26.178 31.089 22.178 32 16 32s-10.178-.91-12.634-3.366Z" clip-rule="evenodd"/>
  <path fill="#fff" fill-rule="evenodd" d="M18.663 11.86v6.861a1 1 0 1 1-2 0v-1.935a.68.68 0 0 0-1.327.028h-.003v1.787a1 1 0 1 1-2 0v-2.427a.68.68 0 0 0-1.333 0v4.816a1 1 0 1 1-2 0v-3.536a.613.613 0 0 0-.667-.543.613.613 0 0 0-.666.543v.26a1 1 0 1 1-2 0v-3.09a1 1 0 1 1 2 0v.259a.613.613 0 0 0 .666.543c.334.031.63-.21.667-.543v-2.227a1 1 0 0 1 2 0v.942a.68.68 0 0 0 1.333 0v-2.596a1 1 0 1 1 2 0v3.241h.003a.68.68 0 0 0 1.327.028V11.86a1 1 0 1 1 2 0ZM21 13.537a.992.992 0 0 0-1 .983v3.923a1 1 0 1 0 2 0V14.52a.992.992 0 0 0-1-.983Zm2.333 2.975a.992.992 0 0 1 1-.984.992.992 0 0 1 1 .984v.978a1 1 0 1 1-2 0v-.978Z" clip-rule="evenodd"/>
  <defs>
    <linearGradient id="a" x1="-9.267" x2="16" y1="16" y2="41.267" gradientUnits="userSpaceOnUse">
      <stop stop-color="#FF9E57"/>
      <stop offset="1" stop-color="#FF5321"/>
    </linearGradient>
  </defs>
</svg>
